img/contact-phone.svg

<svg width="23" height="24" viewBox="0 0 23 24" fill="none" xmlns="http://www.w3.org/2000/svg">
<path d="M19.1666 11.049H21.0833C21.0833 6.11706 17.3717 2.39746 12.4487 2.39746V4.32023C16.3415 4.32023 19.1666 7.14959 19.1666 11.049Z" fill="#BDBDBD"/>
<path d="M12.4584 8.16564C14.4737 8.16564 15.3334 9.028 15.3334 11.0498H17.25C17.25 7.94933 15.549 6.24287 12.4584 6.24287V8.16564ZM15.7378 13.3985C15.5536 13.2306 15.3116 13.141 15.0629 13.1487C14.8142 13.1564 14.5782 13.2608 14.4047 13.4398L12.1114 15.8058C11.5594 15.7 10.4497 15.353 9.30736 14.2099C8.16503 13.0629 7.81907 11.9468 7.71653 11.3969L10.0731 9.0953C10.2517 8.92141 10.3559 8.68462 10.3636 8.43503C10.3713 8.18544 10.2819 7.94264 10.1143 7.75801L6.57323 3.8519C6.40557 3.6667 6.17254 3.55436 5.92363 3.53874C5.67473 3.52312 5.42956 3.60546 5.24019 3.76826L3.16061 5.5574C2.99492 5.72422 2.89603 5.94623 2.88269 6.18134C2.86832 6.42169 2.59423 12.115 6.9949 16.5316C10.834 20.382 15.6429 20.6637 16.9673 20.6637C17.1609 20.6637 17.2797 20.6579 17.3114 20.656C17.5457 20.6428 17.7669 20.5432 17.9324 20.3762L19.7149 18.289C19.8773 18.0992 19.9595 17.8533 19.9441 17.6036C19.9287 17.3539 19.8169 17.1201 19.6324 16.9517L15.7378 13.3985Z" fill="#BDBDBD"/>
</svg>

<svg width="23" height="24" fill="none"
  xmlns="http://www.w3.org/2000/svg">
  <path d="M19.167 11.049h1.916c0-4.932-3.711-8.652-8.634-8.652V4.32c3.893 0 6.718 2.83 6.718 6.729z" fill="#BDBDBD"/>
  <path d="M12.458 8.166c2.016 0 2.875.862 2.875 2.884h1.917c0-3.1-1.701-4.807-4.792-4.807v1.923zm3.28 5.232a.958.958 0 00-1.333.042l-2.294 2.366c-.552-.106-1.661-.453-2.804-1.596-1.142-1.147-1.488-2.263-1.59-2.813l2.356-2.302a.963.963 0 00.041-1.337l-3.54-3.906a.957.957 0 00-1.334-.084l-2.08 1.79a.963.963 0 00-.277.623c-.015.24-.289 5.934 4.112 10.35 3.839 3.851 8.648 4.133 9.972 4.133.194 0 .313-.006.344-.008a.95.95 0 00.621-.28l1.783-2.087a.963.963 0 00-.083-1.337l-3.894-3.554z" fill="#BDBDBD"/>
</svg>
